packages/katcn/src/icons/svg/atom.svg

<svg width="24" height="25" viewBox="0 0 24 25" fill="none" xmlns="http://www.w3.org/2000/svg">
<path d="M20.8241 3.36304C19.5213 2.05993 17.3165 1.85945 14.7109 2.7616C13.8089 3.06232 12.907 3.56352 12.005 4.06471C8.39723 1.95969 4.98988 1.55873 3.18598 3.36304C1.28187 5.16734 1.78295 8.57548 3.8875 12.1841C1.68273 15.8929 1.38209 19.3011 3.18598 21.0051C3.8875 21.807 4.98988 22.208 6.29269 22.208C7.99637 22.208 10.0007 21.5063 12.005 20.3035C14.0094 21.5063 16.0137 22.208 17.7174 22.208C19.0202 22.208 20.0223 21.8071 20.8241 21.1054C22.628 19.3011 22.2271 15.8929 20.1226 12.2843C22.3273 8.47524 22.628 5.0671 20.8241 3.36304ZM15.3122 4.66615C17.2163 3.96447 18.6193 4.06471 19.421 4.76639C20.323 5.66854 20.1226 7.8738 18.92 10.2795C18.2184 9.37739 17.5169 8.47524 16.615 7.57308C15.713 6.67093 14.8111 5.96926 13.9091 5.26758C14.4102 5.0671 14.9113 4.76639 15.3122 4.66615ZM4.58901 19.6018C3.68706 18.6996 3.8875 16.4944 5.09009 14.0886C5.79161 14.9908 6.49312 15.8929 7.39507 16.7951C8.29702 17.6972 9.19897 18.4992 10.1009 19.1006C7.5955 20.4037 5.49096 20.5039 4.58901 19.6018ZM19.421 19.6018C18.5191 20.5039 16.4145 20.3035 13.8089 19.1006C14.7109 18.3989 15.6128 17.597 16.5148 16.7951C16.9156 16.3941 17.3165 15.9932 17.6171 15.5922C18.018 15.1913 17.9178 14.5898 17.5169 14.1889C17.1161 13.7879 16.5148 13.8882 16.1139 14.2891C15.8133 14.6901 15.4124 14.9908 15.1117 15.3917C14.1096 16.3941 13.0072 17.2963 12.005 17.998C11.0029 17.2963 9.90048 16.3941 8.89832 15.3917C4.48879 10.9812 3.08576 6.26997 4.58901 4.76639C4.88966 4.36543 5.49096 4.16495 6.29269 4.16495C7.29485 4.16495 8.69788 4.56591 10.1009 5.26758C9.19897 5.96926 8.29702 6.77117 7.39507 7.57308C6.99421 8.07428 6.49312 8.57548 6.09226 9.07667C5.69139 9.47763 5.79161 10.0791 6.19247 10.48C6.59334 10.881 7.29485 10.7807 7.5955 10.3798C7.99637 9.87858 8.39724 9.47763 8.7981 9.07667C9.80027 8.07428 10.9026 7.17213 11.9048 6.47045C12.907 7.17213 14.0094 8.07428 15.1117 9.07667C19.5213 13.387 20.9243 18.0982 19.421 19.6018Z" fill="black"/>
<path d="M12 13.808C12.8837 13.808 13.6 13.0917 13.6 12.208C13.6 11.3244 12.8837 10.608 12 10.608C11.1164 10.608 10.4 11.3244 10.4 12.208C10.4 13.0917 11.1164 13.808 12 13.808Z" fill="black"/>
</svg>

<svg xmlns="http://www.w3.org/2000/svg" fill="none" viewBox="0 0 24 25"><path fill="#000" d="M20.824 3.363c-1.303-1.303-3.508-1.504-6.113-.601-.902.3-1.804.802-2.706 1.303C8.397 1.96 4.99 1.559 3.186 3.363c-1.904 1.804-1.403 5.212.702 8.821-2.205 3.709-2.506 7.117-.702 8.821.702.802 1.804 1.203 3.107 1.203 1.703 0 3.708-.702 5.712-1.904 2.004 1.202 4.009 1.904 5.712 1.904 1.303 0 2.305-.4 3.107-1.103 1.804-1.804 1.403-5.212-.701-8.82 2.204-3.81 2.505-7.218.701-8.922m-5.512 1.303c1.904-.702 3.307-.601 4.109.1.902.903.702 3.108-.501 5.514-.702-.903-1.403-1.805-2.305-2.707s-1.804-1.604-2.706-2.305c.501-.2 1.002-.502 1.403-.602M4.59 19.602c-.902-.902-.702-3.108.501-5.513.702.902 1.403 1.804 2.305 2.706S9.2 18.5 10.101 19.101c-2.506 1.303-4.61 1.403-5.512.5m14.832 0c-.902.902-3.006.701-5.612-.501.902-.702 1.804-1.504 2.706-2.306.4-.4.802-.802 1.102-1.203.401-.4.3-1.002-.1-1.403s-1.002-.3-1.403.1c-.3.401-.702.702-1.002 1.103a24 24 0 0 1-3.107 2.606 24 24 0 0 1-3.107-2.606C4.488 10.982 3.086 6.27 4.59 4.766c.3-.4.902-.601 1.704-.601 1.002 0 2.405.4 3.808 1.103-.902.701-1.804 1.503-2.706 2.305-.4.501-.902 1.002-1.303 1.504-.4.4-.3 1.002.1 1.403.401.401 1.103.3 1.404-.1.4-.501.801-.902 1.202-1.303a24 24 0 0 1 3.107-2.607c1.002.702 2.104 1.604 3.207 2.607 4.41 4.31 5.812 9.021 4.309 10.525"/><path fill="#000" d="M12 13.808a1.6 1.6 0 1 0 0-3.2 1.6 1.6 0 0 0 0 3.2"/></svg>
